X:1
T:Anselm Lingnau's Compliments to Rik de Vroome
T:Anselm Lingnau's Compliments to Rik de Vroome
T:Anselm Lingnau
C:Anselm Lingnau
L:1/8
M:4/4
K:C
V:1 treble 
V:1
 e c!p!eue ad deve dace.euef becauee e!p!eca ee fac!p!!p!eue.e beue ce!p!ae adebuf!p! aed fae ada uege cuda eveaa dace ue(3.DE^F | %1
"G" G>A G>^F G>B g>^f |"C" e>^f g>e"G" d4 |"Am" c>d e>g"G" B>d g>b | %4
"D" (3aba (3g^fe"D7" (3ded (3cBA |"G" G>A G>E D>G B>d |"C" e>^f g>e"G" d4 | %7
"Am" c>d e>g"G" B>d g>b |"D" (3aba"D7" (3de^f"G" g2 :: (3g^f^e |"C" =e>c G>E"G" D>G B>d | %11
"Am" (3cdc (3BcB"D" A2 A>B | c>A ^F>E"D7" D>F A>c |"G" (3e^fe d>^c d2 (3gf^e | %14
"C" =e>c G>E"G" D>G B>d |"Am" ^f>e c>A E2 f>e |"D" (3ded (3cdc"D7" (3BcB (3AG^F |"G" G2 B2 G2 |] %18

